build/images/g23.svg

<svg width="138" height="138" viewBox="0 0 138 138" fill="none" xmlns="http://www.w3.org/2000/svg">
<circle cx="69" cy="69" r="69" fill="#76BD5E"/>
<path d="M98.9688 100H90.8438C90.2936 100 89.8175 99.799 89.4155 99.397C89.0135 98.995 88.8125 98.5189 88.8125 97.9688C88.8125 97.4186 89.0135 96.9425 89.4155 96.5405C89.8175 96.1385 90.2936 95.9375 90.8438 95.9375H92.875V69.5312H92.8115C92.5576 75.1172 91.3198 80.2376 89.0981 84.8926C86.8765 89.5475 83.946 93.2292 80.3066 95.9375C76.6673 98.6458 72.7318 100 68.5 100C64.2682 100 60.3327 98.6458 56.6934 95.9375C53.054 93.2292 50.1235 89.5475 47.9019 84.8926C45.6802 80.2376 44.4424 75.1172 44.1885 69.5312H44.125V95.9375H46.1562C46.7064 95.9375 47.1825 96.1385 47.5845 96.5405C47.9865 96.9425 48.1875 97.4186 48.1875 97.9688C48.1875 98.5189 47.9865 98.995 47.5845 99.397C47.1825 99.799 46.7064 100 46.1562 100H38.0312C37.4811 100 37.005 99.799 36.603 99.397C36.201 98.995 36 98.5189 36 97.9688C36 97.4186 36.201 96.9425 36.603 96.5405C37.005 96.1385 37.4811 95.9375 38.0312 95.9375H40.0625V61.4062C40.0625 60.8561 40.2635 60.38 40.6655 59.978C41.0675 59.576 41.5436 59.375 42.0938 59.375C42.6439 59.375 43.12 59.576 43.522 59.978C43.924 60.38 44.125 60.8561 44.125 61.4062V65.4688H44.1885C44.4424 59.8828 45.6802 54.7624 47.9019 50.1074C50.1235 45.4525 53.054 41.7708 56.6934 39.0625C60.3327 36.3542 64.2682 35 68.5 35C72.7318 35 76.6673 36.3542 80.3066 39.0625C83.946 41.7708 86.8765 45.4525 89.0981 50.1074C91.3198 54.7624 92.5576 59.8828 92.8115 65.4688H92.875V61.4062C92.875 60.8561 93.076 60.38 93.478 59.978C93.88 59.576 94.3561 59.375 94.9062 59.375C95.4564 59.375 95.9325 59.576 96.3345 59.978C96.7365 60.38 96.9375 60.8561 96.9375 61.4062V95.9375H98.9688C99.5189 95.9375 99.995 96.1385 100.397 96.5405C100.799 96.9425 101 97.4186 101 97.9688C101 98.5189 100.799 98.995 100.397 99.397C99.995 99.799 99.5189 100 98.9688 100ZM68.5 43.125C65.5378 43.125 62.8188 44.2147 60.3433 46.394C57.8677 48.5734 55.8999 51.5356 54.4399 55.2808C52.98 59.0259 52.25 63.099 52.25 67.5C52.25 71.901 52.98 75.9741 54.4399 79.7192C55.8999 83.4644 57.8677 86.4266 60.3433 88.606C62.8188 90.7853 65.5378 91.875 68.5 91.875C71.4622 91.875 74.1812 90.7853 76.6567 88.606C79.1323 86.4266 81.1001 83.4644 82.5601 79.7192C84.02 75.9741 84.75 71.901 84.75 67.5C84.75 63.099 84.02 59.0259 82.5601 55.2808C81.1001 51.5356 79.1323 48.5734 76.6567 46.394C74.1812 44.2147 71.4622 43.125 68.5 43.125ZM54.5669 60.3906C54.842 59.9251 55.244 59.6183 55.7729 59.4702C56.3019 59.3221 56.8203 59.375 57.3281 59.6289L81.7031 71.8164C82.1686 72.1126 82.4754 72.5252 82.6235 73.0542C82.7716 73.5832 82.7082 74.091 82.4331 74.5776C82.158 75.0643 81.756 75.3817 81.2271 75.5298C80.6981 75.6779 80.1797 75.625 79.6719 75.3711L55.2969 63.1836C54.7891 62.8874 54.4717 62.4642 54.3447 61.9141C54.2178 61.3639 54.2918 60.8561 54.5669 60.3906ZM77.6406 63.1836L61.3906 55.0586C60.9251 54.7624 60.6183 54.3392 60.4702 53.7891C60.3221 53.2389 60.3856 52.7205 60.6606 52.2339C60.9357 51.7472 61.3377 51.4404 61.8667 51.3135C62.3957 51.1865 62.9141 51.25 63.4219 51.5039L79.6719 59.6289C80.1797 59.9251 80.4971 60.3377 80.624 60.8667C80.751 61.3957 80.6769 61.9035 80.4019 62.3901C80.1268 62.8768 79.7248 63.1942 79.1958 63.3423C78.6668 63.4904 78.1484 63.4375 77.6406 63.1836ZM59.3594 71.8164L75.6094 79.9414C76.1172 80.2376 76.4346 80.6608 76.5615 81.2109C76.6885 81.7611 76.6144 82.2795 76.3394 82.7661C76.0643 83.2528 75.6623 83.5596 75.1333 83.6865C74.6043 83.8135 74.0859 83.75 73.5781 83.4961L57.3281 75.3711C56.8203 75.0749 56.5029 74.6517 56.376 74.1016C56.249 73.5514 56.3231 73.0436 56.5981 72.5781C56.8732 72.1126 57.2752 71.8058 57.8042 71.6577C58.3332 71.5096 58.8516 71.5625 59.3594 71.8164Z" fill="white"/>
</svg>

<svg width="138" height="138" fill="none" xmlns="http://www.w3.org/2000/svg"><circle cx="69" cy="69" r="69" fill="#76BD5E"/><path d="M98.969 100h-8.125c-.55 0-1.026-.201-1.428-.603a1.952 1.952 0 01-.603-1.428c0-.55.2-1.026.602-1.428a1.952 1.952 0 011.429-.603h2.031V69.53h-.064c-.253 5.586-1.491 10.707-3.713 15.362-2.222 4.654-5.152 8.336-8.791 11.044C76.667 98.647 72.732 100 68.5 100s-8.167-1.354-11.807-4.063c-3.639-2.708-6.57-6.39-8.791-11.044-2.222-4.655-3.46-9.776-3.714-15.362h-.063v26.406h2.031c.55 0 1.026.201 1.428.603.402.402.603.879.603 1.429s-.2 1.026-.602 1.428a1.952 1.952 0 01-1.429.603h-8.125c-.55 0-1.026-.201-1.428-.603A1.952 1.952 0 0136 97.969c0-.55.201-1.026.603-1.428a1.952 1.952 0 011.428-.603h2.032V61.406c0-.55.2-1.026.602-1.428a1.952 1.952 0 011.429-.603c.55 0 1.026.201 1.428.603.402.402.603.878.603 1.428v4.063h.063c.254-5.586 1.492-10.707 3.714-15.362 2.221-4.654 5.152-8.336 8.791-11.044C60.333 36.353 64.268 35 68.5 35s8.167 1.354 11.807 4.063c3.639 2.708 6.57 6.39 8.791 11.044 2.222 4.655 3.46 9.776 3.713 15.362h.064v-4.063c0-.55.201-1.026.603-1.428a1.952 1.952 0 011.428-.603c.55 0 1.026.201 1.428.603.403.402.603.878.603 1.428v34.532h2.032c.55 0 1.026.2 1.428.602.402.402.603.879.603 1.429s-.201 1.026-.603 1.428a1.952 1.952 0 01-1.428.603zM68.5 43.125c-2.962 0-5.681 1.09-8.157 3.269-2.475 2.18-4.443 5.142-5.903 8.887s-2.19 7.818-2.19 12.219.73 8.474 2.19 12.22c1.46 3.744 3.428 6.707 5.903 8.886 2.476 2.18 5.195 3.269 8.157 3.269 2.962 0 5.681-1.09 8.157-3.269 2.475-2.18 4.443-5.142 5.903-8.887s2.19-7.818 2.19-12.219-.73-8.474-2.19-12.22c-1.46-3.744-3.428-6.707-5.903-8.886-2.476-2.18-5.195-3.269-8.157-3.269zM54.567 60.391a1.964 1.964 0 011.206-.92 2.101 2.101 0 011.555.158l24.375 12.187c.466.297.772.71.92 1.238a1.927 1.927 0 01-.19 1.524 1.94 1.94 0 01-1.206.952 2.101 2.101 0 01-1.555-.159L55.297 63.184c-.508-.297-.825-.72-.952-1.27s-.053-1.058.222-1.523zm23.074 2.793l-16.25-8.125a2.095 2.095 0 01-.92-1.27 1.993 1.993 0 01.19-1.555 1.826 1.826 0 011.206-.92 2.22 2.22 0 011.555.19l16.25 8.125c.508.296.825.709.952 1.238a2.032 2.032 0 01-.222 1.523 1.94 1.94 0 01-1.206.952 2.101 2.101 0 01-1.555-.158zm-18.282 8.632l16.25 8.125c.508.297.826.72.953 1.27s.052 1.069-.223 1.555a1.826 1.826 0 01-1.206.92 2.22 2.22 0 01-1.555-.19l-16.25-8.125c-.508-.296-.825-.72-.952-1.27a2.004 2.004 0 01.222-1.523 1.964 1.964 0 011.206-.92 2.101 2.101 0 011.555.158z" fill="#fff"/></svg>
